material/.icons/material/volume-off.svg

<svg xmlns="http://www.w3.org/2000/svg" viewBox="0 0 24 24"><path d="M12 4L9.91 6.09 12 8.18M4.27 3L3 4.27 7.73 9H3v6h4l5 5v-6.73l4.25 4.26c-.67.51-1.42.93-2.25 1.17v2.07c1.38-.32 2.63-.95 3.68-1.81L19.73 21 21 19.73l-9-9M19 12c0 .94-.2 1.82-.54 2.64l1.51 1.51A8.916 8.916 0 0021 12c0-4.28-3-7.86-7-8.77v2.06c2.89.86 5 3.54 5 6.71m-2.5 0c0-1.77-1-3.29-2.5-4.03v2.21l2.45 2.45c.05-.2.05-.42.05-.63z"/></svg>

<?xml version="1.0" encoding="UTF-8"?><!DOCTYPE svg PUBLIC "-//W3C//DTD SVG 1.1//EN" "http://www.w3.org/Graphics/SVG/1.1/DTD/svg11.dtd"><svg xmlns="http://www.w3.org/2000/svg" xmlns:xlink="http://www.w3.org/1999/xlink" version="1.1" id="mdi-volume-off" width="24" height="24" viewBox="0 0 24 24"><path d="M12,4L9.91,6.09L12,8.18M4.27,3L3,4.27L7.73,9H3V15H7L12,20V13.27L16.25,17.53C15.58,18.04 14.83,18.46 14,18.7V20.77C15.38,20.45 16.63,19.82 17.68,18.96L19.73,21L21,19.73L12,10.73M19,12C19,12.94 18.8,13.82 18.46,14.64L19.97,16.15C20.62,14.91 21,13.5 21,12C21,7.72 18,4.14 14,3.23V5.29C16.89,6.15 19,8.83 19,12M16.5,12C16.5,10.23 15.5,8.71 14,7.97V10.18L16.45,12.63C16.5,12.43 16.5,12.21 16.5,12Z" /></svg>
